X: 557
T: Farewell Trion
B: jims roots
M:4/4
L:1/8
R: Reel
Q: 1/4=100
K:C
V:1 
%S:Tashina Clarridge and Jefferson Hamer | March 1, 2011 | Bainbridge Island, WA
%N: Transcribed by Bruce Thomson from the Red Mountain White Trash
"C"eg2a g2ec | (3ded c2 e4 | "F"Ac2d cAGA |c2d2  "C"edc2 |
eg2a g2ec | (3ded c2 e4 | "F"Ac2d (3cBA GA | AGEC "C"DC3 :|
|:[M:6/4]"C"G,A,CD EGAB cBAB | "F"[A6c6]-[A6c6] cd | cAGc AGEC DCC2:|
EF |[M:4/4] "C"G2EF G2EF | GAGE DCEF | GECE G2AB | cAGE DCEF |
"C"G2EF G2EF | GAGE DCA,C | G,A,CD EGAB | cAGE DC3 ||
% abcbook-tune_id 6298c25dbbc0a2950793e7a4


% abcbook-boost 0
% abcbook-tablature 
% abcbook-transpose 
% abcbook-lastupdated 1654178397926
% abcbook-soundfonts 
% abcbook-repeats 1


